img/mida.svg

<svg width="190" height="94" viewBox="0 0 190 94" fill="none" xmlns="http://www.w3.org/2000/svg">
<rect x="1" y="1.17859" width="188" height="91.6429" rx="11" fill="white" stroke="black" stroke-width="2"/>
<path d="M20.0586 61.7582V60.9007C20.0586 59.749 21.1787 59.4885 21.8754 59.4885C22.784 59.4885 23.7363 59.8246 23.7363 60.8249V61.2034C23.7363 62.0524 23.3747 62.355 22.8191 62.4727V62.5147C23.3836 62.5904 23.7363 62.8256 23.7363 63.5991V64.2631C23.7363 65.2971 22.8896 65.7089 21.8754 65.7089C20.7113 65.7089 20.0586 65.2888 20.0586 64.3136V63.2881H21.5227V64.2967C21.5227 64.5406 21.5932 64.7507 21.8932 64.7507C22.1928 64.7507 22.2724 64.5406 22.2724 64.2967V63.4392C22.2724 62.9265 22.0608 62.9014 21.6461 62.9014V61.9934C22.1312 61.9934 22.2724 61.8757 22.2724 61.4639V60.8166C22.2724 60.6149 22.1312 60.4467 21.8932 60.4467C21.5492 60.4467 21.5227 60.7411 21.5227 61.094V61.7582H20.0586V61.7582Z" fill="#2B2B2A"/>
<path d="M28.8691 59.606L29.6803 65.5913H28.2251L28.0577 64.1202H27.2638L27.0258 65.5913H25.791L26.8582 59.606H28.8691V59.606ZM27.9517 63.2123L27.6961 60.5475H27.6785L27.4227 63.2123H27.9517Z" fill="#2B2B2A"/>
<path d="M35.4503 59.606V65.5913H33.9863V60.5139H33.2102V65.5913H31.7461V59.606H35.4503Z" fill="#2B2B2A"/>
<path d="M41.3038 61.237V63.9605C41.3038 65.3307 40.4217 65.7089 39.4518 65.7089C38.4817 65.7089 37.5996 65.3307 37.5996 63.9605V61.237C37.5996 59.8667 38.4817 59.4885 39.4518 59.4885C40.4217 59.4885 41.3038 59.8667 41.3038 61.237ZM39.0637 60.9175V64.2799C39.0637 64.5236 39.1431 64.7507 39.4518 64.7507C39.7605 64.7507 39.8398 64.5236 39.8398 64.2799V60.9175C39.8398 60.6736 39.7605 60.4467 39.4518 60.4467C39.1431 60.4467 39.0637 60.6736 39.0637 60.9175V60.9175Z" fill="#2B2B2A"/>
<path d="M44.9212 65.5913H43.457V59.606H45.2474C46.4116 59.606 47.1612 59.8584 47.1612 60.8921V61.985C47.1612 62.8843 46.3235 63.2795 45.4592 63.2795H44.9212V65.5913V65.5913ZM44.9212 62.4222H45.1505C45.6619 62.4222 45.6973 62.1532 45.6973 61.447C45.6973 60.741 45.6619 60.4635 45.1505 60.4635H44.9212V62.4222Z" fill="#2B2B2A"/>
<path d="M49.3125 59.606H50.7766V65.5913H49.3125V59.606Z" fill="#2B2B2A"/>
<path d="M52.9277 61.7582V60.9007C52.9277 59.749 54.0478 59.4885 54.7446 59.4885C55.6529 59.4885 56.6054 59.8246 56.6054 60.8249V61.2034C56.6054 62.0524 56.2439 62.355 55.6882 62.4727V62.5147C56.2527 62.5904 56.6054 62.8256 56.6054 63.5991V64.2631C56.6054 65.2971 55.7587 65.7089 54.7446 65.7089C53.5805 65.7089 52.9277 65.2888 52.9277 64.3136V63.2881H54.3919V64.2967C54.3919 64.5406 54.4621 64.7507 54.7621 64.7507C55.062 64.7507 55.1415 64.5406 55.1415 64.2967V63.4392C55.1415 62.9265 54.9297 62.9014 54.515 62.9014V61.9934C55.0004 61.9934 55.1415 61.8757 55.1415 61.4639V60.8166C55.1415 60.6149 55.0004 60.4467 54.7621 60.4467C54.4181 60.4467 54.3919 60.7411 54.3919 61.094V61.7582H52.9277Z" fill="#2B2B2A"/>
<path d="M60.2219 61.9597H60.892C61.7564 61.9597 62.462 62.2287 62.462 63.7922C62.462 65.2551 61.7739 65.5913 60.9096 65.5913H58.7578V59.606H60.2219V61.9597V61.9597ZM60.2219 64.7338H60.4511C60.9627 64.7338 60.998 64.4984 60.998 63.7922C60.998 63.0863 60.9627 62.8172 60.4511 62.8172H60.2219V64.7338V64.7338Z" fill="#2B2B2A"/>
<path d="M66.0772 62.3213H66.095L67.0211 59.606H68.4144L67.4354 62.2457L68.4232 65.5913H66.9769L66.095 62.5565H66.0772V65.5913H64.6133V59.606H66.0772V62.3213Z" fill="#2B2B2A"/>
<path d="M73.4472 59.606L74.2586 65.5913H72.8034L72.6358 64.1202H71.842L71.6039 65.5913H70.3691L71.4364 59.606H73.4472V59.606ZM72.53 63.2123L72.2742 60.5475H72.2566L72.0008 63.2123H72.53V63.2123Z" fill="#2B2B2A"/>
<path d="M80.1348 59.606H81.6165C82.8599 59.606 83.8389 59.623 83.8389 61.0603C83.8389 61.7243 83.636 62.3213 82.7982 62.3969V62.4556C83.7329 62.4556 83.8389 63.1114 83.8389 63.8848C83.8389 65.5324 83.1686 65.5913 81.6165 65.5913H80.1348V59.606ZM81.5989 62.0355C82.2866 62.0355 82.375 61.8925 82.375 61.2537C82.375 60.6063 82.269 60.4635 81.5989 60.4635V62.0355ZM81.5989 64.7338C82.269 64.7338 82.375 64.6329 82.375 63.7503C82.375 62.9013 82.2161 62.8928 81.5989 62.8928V64.7338Z" fill="#2B2B2A"/>
<path d="M85.9883 61.7582V60.9007C85.9883 59.749 87.1084 59.4885 87.8051 59.4885C88.7136 59.4885 89.666 59.8246 89.666 60.8249V61.2034C89.666 62.0524 89.3044 62.355 88.7488 62.4727V62.5147C89.3133 62.5904 89.666 62.8256 89.666 63.5991V64.2631C89.666 65.2971 88.8194 65.7089 87.8051 65.7089C86.641 65.7089 85.9883 65.2888 85.9883 64.3136V63.2881H87.4524V64.2967C87.4524 64.5406 87.5229 64.7507 87.8227 64.7507C88.1225 64.7507 88.2021 64.5406 88.2021 64.2967V63.4392C88.2021 62.9265 87.9905 62.9014 87.5758 62.9014V61.9934C88.0609 61.9934 88.2021 61.8757 88.2021 61.4639V60.8166C88.2021 60.6149 88.0609 60.4467 87.8227 60.4467C87.4789 60.4467 87.4524 60.7411 87.4524 61.094V61.7582H85.9883Z" fill="#2B2B2A"/>
<path d="M93.1087 59.606L93.6289 62.1279L94.2463 59.606H95.6043L93.7172 65.5913H92.4557L92.888 64.1368L91.627 59.606H93.1087Z" fill="#2B2B2A"/>
<path d="M101 59.606V60.5139H99.9774V65.5913H98.5132V60.5139H97.4902V59.606H101Z" fill="#2B2B2A"/>
<path d="M106.522 59.606V60.5139H105.499V65.5913H104.035V60.5139H103.012V59.606H106.522Z" fill="#2B2B2A"/>
<path d="M112.307 63.2628V64.053C112.307 65.1709 111.681 65.7089 110.447 65.7089C109.477 65.7089 108.604 65.3307 108.604 63.9605V61.237C108.604 59.8667 109.477 59.4885 110.447 59.4885C111.514 59.4885 112.307 59.791 112.307 61.0857V61.7497H110.844V60.9175C110.844 60.6736 110.764 60.4467 110.447 60.4467C110.147 60.4467 110.067 60.6736 110.067 60.9175V61.9934H110.702V62.9014H110.067V64.2799C110.067 64.5236 110.147 64.7507 110.447 64.7507C110.764 64.7507 110.844 64.5236 110.844 64.2799V63.2628H112.307V63.2628Z" fill="#2B2B2A"/>
<path d="M114.461 59.606H115.943C117.186 59.606 118.165 59.623 118.165 61.0603C118.165 61.7243 117.962 62.3213 117.124 62.3969V62.4556C118.059 62.4556 118.165 63.1114 118.165 63.8848C118.165 65.5324 117.495 65.5913 115.943 65.5913H114.461V59.606ZM115.925 62.0355C116.613 62.0355 116.701 61.8925 116.701 61.2537C116.701 60.6063 116.595 60.4635 115.925 60.4635V62.0355ZM115.925 64.7338C116.595 64.7338 116.701 64.6329 116.701 63.7503C116.701 62.9013 116.542 62.8928 115.925 62.8928V64.7338Z" fill="#2B2B2A"/>
<path d="M123.299 59.606L124.11 65.5913H122.655L122.487 64.1202H121.694L121.455 65.5913H120.221L121.288 59.606H123.299V59.606ZM122.381 63.2123L122.126 60.5475H122.108L121.852 63.2123H122.381V63.2123Z" fill="#2B2B2A"/>
<path d="M133.499 59.606V60.2785C135.14 60.2785 135.695 60.6735 135.695 62.3213V63.1367C135.695 64.2715 135.343 64.9439 133.499 64.9439V65.5913H132.176V64.9439C130.333 64.9439 129.98 64.2715 129.98 63.1367V62.3213C129.98 60.6567 130.536 60.2785 132.176 60.2785V59.606H133.499ZM132.176 61.136H131.991C131.586 61.136 131.444 61.3546 131.444 62.0942V63.0862C131.444 63.7922 131.568 64.0866 131.991 64.0866H132.176V61.136ZM133.499 64.0866H133.684C134.108 64.0866 134.231 63.7922 134.231 63.0862V62.0942C134.231 61.3546 134.09 61.136 133.684 61.136H133.499V64.0866Z" fill="#2B2B2A"/>
<path d="M140.828 59.606L141.639 65.5913H140.184L140.016 64.1202H139.223L138.985 65.5913H137.75L138.817 59.606H140.828V59.606ZM139.911 63.2123L139.655 60.5475H139.637L139.382 63.2123H139.911Z" fill="#2B2B2A"/>
<path d="M146.977 59.606V60.4635H145.169V61.9597H145.839C146.703 61.9597 147.409 62.2287 147.409 63.7922C147.409 65.2551 146.721 65.5913 145.857 65.5913H143.705V59.606H146.977V59.606ZM145.169 64.7338H145.398C145.91 64.7338 145.945 64.4984 145.945 63.7922C145.945 63.0863 145.91 62.8172 145.398 62.8172H145.169V64.7338V64.7338Z" fill="#2B2B2A"/>
<path d="M151.026 65.5913H149.562V59.606H151.353C152.517 59.606 153.266 59.8584 153.266 60.8921V61.985C153.266 62.8843 152.429 63.2795 151.564 63.2795H151.026V65.5913V65.5913ZM151.026 62.4222H151.256C151.767 62.4222 151.803 62.1532 151.803 61.447C151.803 60.741 151.767 60.4635 151.256 60.4635H151.026V62.4222Z" fill="#2B2B2A"/>
<path d="M156.741 59.606V63.0188H156.75L157.755 59.606H159.201V65.5913H157.879V62.1447H157.87L156.847 65.5913H155.418V59.606H156.741Z" fill="#2B2B2A"/>
<path d="M162.816 62.3213H162.833L163.759 59.606H165.153L164.174 62.2457L165.162 65.5913H163.715L162.833 62.5565H162.816V65.5913H161.352V59.606H162.816V62.3213Z" fill="#2B2B2A"/>
<path d="M170.187 59.606L170.999 65.5913H169.543L169.376 64.1202H168.582L168.344 65.5913H167.109L168.176 59.606H170.187V59.606ZM169.27 63.2123L169.014 60.5475H168.997L168.741 63.2123H169.27V63.2123Z" fill="#2B2B2A"/>
<path d="M79.5059 30.9189C79.5036 30.8176 79.576 30.7373 79.6812 30.7373H81.5383C81.6415 30.7373 81.7159 30.8176 81.7065 30.9189L81.1803 37.7787C81.1731 37.8774 81.0815 37.9611 80.9808 37.9611H80.2391C80.1356 37.9611 80.0468 37.8774 80.037 37.7787L79.5059 30.9189V30.9189Z" fill="#2B2B2A"/>
<path d="M79.2963 37.9613C79.373 37.9613 79.4735 37.8664 79.4667 37.779L78.9647 31.6559C78.9504 31.4711 78.7312 31.4065 78.6232 31.5529L76.9928 33.8252C76.9252 33.9284 76.87 33.9692 76.7383 33.9382L71.8065 32.5908C71.6171 32.5402 71.4967 32.738 71.5832 32.8693L74.9874 37.8991C75.0112 37.9352 75.0779 37.9613 75.1285 37.9613H75.6596C75.8011 37.9613 75.8802 37.8124 75.8374 37.7081L74.497 34.8269C74.4541 34.7415 74.5476 34.5552 74.718 34.5987L77.0047 35.1845C77.1343 35.2221 77.18 35.2399 77.3047 35.0914L77.6317 34.709C77.7468 34.5724 77.9342 34.6563 77.9555 34.7836L78.5181 37.7822C78.5418 37.9061 78.6071 37.9613 78.7363 37.9613H79.2963V37.9613Z" fill="#2B2B2A"/>
<path d="M84.1532 33.7349C83.8868 33.359 82.6834 31.6874 82.5753 31.5291C82.479 31.398 82.2458 31.4603 82.239 31.6247C82.2313 31.7471 81.821 36.7219 81.7344 37.7691C81.7322 37.853 81.8015 37.9611 81.9218 37.9611C82.3953 37.9611 83.5384 37.9611 83.608 37.9611C83.6924 37.9611 83.7789 37.9038 83.7905 37.8026C83.8919 37.0794 84.266 34.4035 84.2731 34.3291C84.2973 34.1315 84.2803 33.9184 84.1532 33.7349V33.7349ZM83.7253 34.774C83.7253 34.8167 83.4901 36.7457 83.4158 37.3609C83.4041 37.4618 83.3078 37.5192 83.2261 37.5192C83.185 37.5192 83.0146 37.5192 82.868 37.5192C82.7744 37.5192 82.6639 37.4257 82.6785 37.3116C82.7699 36.5946 83.0675 34.2637 83.0792 34.1638C83.0962 34.0293 83.2787 33.938 83.3994 34.0584C83.4995 34.1539 83.5142 34.1694 83.5911 34.2444C83.7353 34.3886 83.7402 34.6236 83.7253 34.774V34.774Z" fill="#2B2B2A"/>
<path d="M85.4909 33.6613C85.0275 33.7866 84.8544 34.0805 84.8253 34.2814L84.3525 37.7632C84.3427 37.8433 84.4127 37.961 84.535 37.961H84.7537C84.8089 37.961 84.8905 37.9107 84.9119 37.8506L85.4429 36.3806C85.4669 36.3013 85.5385 36.258 85.6209 36.258L86.031 36.2607C86.161 36.2607 86.2594 36.395 86.1901 36.5295L85.5988 37.6995C85.5385 37.817 85.6322 37.9591 85.7671 37.9591H86.0915C86.161 37.9591 86.2115 37.9179 86.2402 37.8795L89.6056 32.879C89.7137 32.7192 89.5669 32.5495 89.4036 32.5928L85.4909 33.6613V33.6613ZM85.8729 35.601C85.7694 35.601 85.7169 35.5233 85.7501 35.427C85.7501 35.427 85.9162 34.9824 85.9929 34.7761C86.0673 34.5721 86.1829 34.2574 86.5164 34.1935C86.7591 34.1421 87.5303 34.0409 87.5303 34.0409C87.6242 34.0244 87.6671 34.0853 87.6166 34.1712L86.8602 35.4411C86.8069 35.5299 86.6826 35.601 86.5761 35.601H85.8729V35.601Z" fill="#2B2B2A"/>
<path d="M79.6816 30.3278C79.5764 30.3278 79.5426 30.2609 79.6 30.1814L80.5057 28.9249C80.5609 28.8432 80.657 28.8432 80.7173 28.9249L81.6226 30.1814C81.6782 30.2609 81.6419 30.3278 81.5412 30.3278H79.6816V30.3278Z" fill="#2B2B2A"/>
<path d="M92.1504 35.8643H170.904V37.1614H92.1504V35.8643Z" fill="#2B2B2A"/>
<path d="M19.9102 35.8643H69.1122V37.1614H19.9102V35.8643Z" fill="#2B2B2A"/>
<path fill-rule="evenodd" clip-rule="evenodd" d="M69.1133 41.084L75.9356 44.4515V52.133L69.1133 55.4969H92.0909L85.2694 52.133V44.4515L92.0909 41.084H69.1133Z" fill="#2B2B2A"/>
<path fill-rule="evenodd" clip-rule="evenodd" d="M92.6484 41.1056L99.4675 44.4722V52.1535L92.6484 55.5176H116.464C118.318 55.5291 120.163 55.414 121.988 55.1813C123.812 54.9455 125.568 54.541 127.258 53.9677C128.185 53.6467 129.072 53.2116 129.908 52.6688C130.746 52.1236 131.429 51.4941 131.964 50.7747C132.497 50.0599 132.774 49.2807 132.793 48.4438C132.754 47.3853 132.293 46.4114 131.416 45.5165C130.54 44.6256 129.468 43.8557 128.2 43.2071C126.939 42.561 125.712 42.0734 124.515 41.7519C123.336 41.461 122.119 41.276 120.867 41.2014C119.615 41.1269 118.374 41.096 117.136 41.1056H92.6484ZM106.967 52.6277V43.6947H111.663C112.993 43.6851 114.254 43.8183 115.445 44.0956C116.64 44.3699 117.617 44.8405 118.374 45.5107C119.13 46.1785 119.524 47.0987 119.55 48.2706C119.532 49.6554 119.185 50.6584 118.494 51.2799C117.804 51.9024 116.863 52.2868 115.66 52.438C114.463 52.5914 113.094 52.6518 111.554 52.6277H106.967V52.6277Z" fill="#2B2B2A"/>
<path fill-rule="evenodd" clip-rule="evenodd" d="M160.413 41.1055H138.387L142.802 43.7738L135.086 52.1377L129.607 55.5175H147.053L141.411 52.5699L142.245 51.5685H152.981L153.817 52.5699L147.334 55.5175H170.814L163.773 52.1377L155.998 43.7738L160.413 41.1055V41.1055ZM147.2 45.3244L150.721 49.2408H143.899L147.2 45.3244V45.3244Z" fill="#2B2B2A"/>
<path d="M44.2406 47.6652L47.764 41.1055H68.618L61.7966 44.472V52.1533L68.618 55.5175H46.0325L52.4577 52.1533V42.8299L44.5527 54.5332H43.9283L36.0209 42.8299V52.1533L42.4508 55.5175H19.8633L26.6824 52.1533V44.472L19.8633 41.1055H40.7146L44.2406 47.6652Z" fill="#2B2B2A"/>
</svg>

<svg xmlns="http://www.w3.org/2000/svg" fill="none" viewBox="0 0 190 94"><rect width="188" height="91.643" x="1" y="1.179" fill="#fff" stroke="#000" stroke-width="2" rx="11"/><path fill="#2B2B2A" d="M20.059 61.758v-.857c0-1.152 1.12-1.413 1.816-1.413.909 0 1.861.337 1.861 1.337v.378c0 .85-.361 1.152-.917 1.27v.042c.565.075.917.31.917 1.084v.664c0 1.034-.846 1.446-1.86 1.446-1.165 0-1.817-.42-1.817-1.395v-1.026h1.464v1.009c0 .244.07.454.37.454s.38-.21.38-.454v-.858c0-.513-.212-.538-.627-.538v-.908c.485 0 .626-.117.626-.53v-.646a.36.36 0 0 0-.379-.37c-.344 0-.37.294-.37.647v.664h-1.464zM28.87 59.606l.81 5.985h-1.455l-.167-1.47h-.794l-.238 1.47H25.79l1.067-5.985h2.011zm-.918 3.606l-.256-2.665h-.018l-.255 2.665h.529zM35.45 59.606v5.985h-1.464v-5.077h-.776v5.077h-1.464v-5.985h3.704zM41.304 61.237v2.724c0 1.37-.882 1.748-1.852 1.748-.97 0-1.852-.378-1.852-1.748v-2.724c0-1.37.882-1.748 1.852-1.748.97 0 1.852.378 1.852 1.748zm-2.24-.32v3.363c0 .244.08.47.388.47.309 0 .388-.226.388-.47v-3.363c0-.243-.08-.47-.388-.47-.309 0-.388.227-.388.47zM44.921 65.591h-1.464v-5.985h1.79c1.165 0 1.914.252 1.914 1.286v1.093c0 .9-.837 1.294-1.702 1.294h-.538v2.312zm0-3.169h.23c.51 0 .546-.269.546-.975s-.035-.983-.547-.983h-.229v1.958zM49.313 59.606h1.464v5.985h-1.465v-5.985zM52.928 61.758v-.857c0-1.152 1.12-1.413 1.817-1.413.908 0 1.86.337 1.86 1.337v.378c0 .85-.361 1.152-.917 1.27v.042c.565.075.917.31.917 1.084v.664c0 1.034-.846 1.446-1.86 1.446-1.164 0-1.817-.42-1.817-1.395v-1.026h1.464v1.009c0 .244.07.454.37.454s.38-.21.38-.454v-.858c0-.513-.212-.538-.627-.538v-.908c.485 0 .627-.117.627-.53v-.646a.36.36 0 0 0-.38-.37c-.344 0-.37.294-.37.647v.664h-1.464zM60.222 61.96h.67c.864 0 1.57.269 1.57 1.832 0 1.463-.688 1.8-1.552 1.8h-2.152v-5.986h1.464v2.354zm0 2.774h.23c.51 0 .546-.236.546-.942s-.035-.975-.547-.975h-.23v1.917zM66.077 62.321h.018l.926-2.715h1.393l-.979 2.64.988 3.345h-1.446l-.882-3.034h-.018v3.034h-1.464v-5.985h1.464v2.715zM73.447 59.606l.812 5.985h-1.456l-.167-1.47h-.794l-.238 1.47h-1.235l1.067-5.985h2.011zm-.917 3.606l-.256-2.665h-.017L72 63.212h.529zM80.135 59.606h1.481c1.244 0 2.223.017 2.223 1.454 0 .664-.203 1.261-1.04 1.337v.059c.934 0 1.04.655 1.04 1.429 0 1.647-.67 1.706-2.222 1.706h-1.482v-5.985zm1.464 2.43c.688 0 .776-.144.776-.782 0-.648-.106-.79-.776-.79v1.572zm0 2.698c.67 0 .776-.101.776-.984 0-.849-.159-.857-.776-.857v1.84zM85.988 61.758v-.857c0-1.152 1.12-1.413 1.817-1.413.909 0 1.861.337 1.861 1.337v.378c0 .85-.362 1.152-.917 1.27v.042c.564.075.917.31.917 1.084v.664c0 1.034-.847 1.446-1.86 1.446-1.165 0-1.818-.42-1.818-1.395v-1.026h1.464v1.009c0 .244.07.454.37.454s.38-.21.38-.454v-.858c0-.513-.212-.538-.626-.538v-.908c.485 0 .626-.117.626-.53v-.646a.36.36 0 0 0-.38-.37c-.343 0-.37.294-.37.647v.664h-1.464zM93.109 59.606l.52 2.522.617-2.522h1.358l-1.887 5.985h-1.261l.432-1.454-1.261-4.531h1.482zM101 59.606v.908h-1.023v5.077h-1.464v-5.077H97.49v-.908H101zM106.522 59.606v.908h-1.023v5.077h-1.464v-5.077h-1.023v-.908h3.51zM112.307 63.263v.79c0 1.118-.626 1.656-1.86 1.656-.97 0-1.843-.378-1.843-1.748v-2.724c0-1.37.873-1.748 1.843-1.748 1.067 0 1.86.302 1.86 1.597v.664h-1.463v-.833c0-.243-.08-.47-.397-.47-.3 0-.38.227-.38.47v1.076h.635v.908h-.635v1.379c0 .244.08.47.38.47.317 0 .397-.226.397-.47v-1.017h1.463zM114.461 59.606h1.482c1.243 0 2.222.017 2.222 1.454 0 .664-.203 1.261-1.041 1.337v.059c.935 0 1.041.655 1.041 1.429 0 1.647-.67 1.706-2.222 1.706h-1.482v-5.985zm1.464 2.43c.688 0 .776-.144.776-.782 0-.648-.106-.79-.776-.79v1.572zm0 2.698c.67 0 .776-.101.776-.984 0-.849-.159-.857-.776-.857v1.84zM123.299 59.606l.811 5.985h-1.455l-.168-1.47h-.793l-.239 1.47h-1.234l1.067-5.985h2.011zm-.918 3.606l-.255-2.665h-.018l-.256 2.665h.529zM133.499 59.606v.672c1.641 0 2.196.395 2.196 2.043v.816c0 1.135-.352 1.807-2.196 1.807v.647h-1.323v-.647c-1.843 0-2.196-.672-2.196-1.807v-.816c0-1.664.556-2.042 2.196-2.042v-.673h1.323zm-1.323 1.53h-.185c-.405 0-.547.219-.547.958v.992c0 .706.124 1 .547 1h.185v-2.95zm1.323 2.95h.185c.424 0 .547-.294.547-1v-.992c0-.74-.141-.958-.547-.958h-.185v2.95zM140.828 59.606l.811 5.985h-1.455l-.168-1.47h-.793l-.238 1.47h-1.235l1.067-5.985h2.011zm-.917 3.606l-.256-2.665h-.018l-.255 2.665h.529zM146.977 59.606v.858h-1.808v1.496h.67c.864 0 1.57.269 1.57 1.832 0 1.463-.688 1.8-1.552 1.8h-2.152v-5.986h3.272zm-1.808 5.128h.229c.512 0 .547-.236.547-.942s-.035-.975-.547-.975h-.229v1.917zM151.026 65.591h-1.464v-5.985h1.791c1.164 0 1.913.252 1.913 1.286v1.093c0 .9-.837 1.294-1.702 1.294h-.538v2.312zm0-3.169h.23c.511 0 .547-.269.547-.975s-.036-.983-.547-.983h-.23v1.958zM156.741 59.606v3.413h.009l1.005-3.413h1.446v5.985h-1.322v-3.446h-.009l-1.023 3.446h-1.429v-5.985h1.323zM162.816 62.321h.017l.926-2.715h1.394l-.979 2.64.988 3.345h-1.447l-.882-3.034h-.017v3.034h-1.464v-5.985h1.464v2.715zM170.187 59.606l.812 5.985h-1.456l-.167-1.47h-.794l-.238 1.47h-1.235l1.067-5.985h2.011zm-.917 3.606l-.256-2.665h-.017l-.256 2.665h.529zM79.506 30.919a.171.171 0 0 1 .175-.182h1.857c.103 0 .178.08.169.182l-.527 6.86a.205.205 0 0 1-.2.182h-.74a.207.207 0 0 1-.203-.182l-.531-6.86zM79.296 37.961c.077 0 .177-.095.17-.182l-.501-6.123c-.015-.185-.234-.25-.342-.103l-1.63 2.272c-.068.103-.123.144-.255.113l-4.931-1.347c-.19-.05-.31.147-.224.278l3.404 5.03c.024.036.09.062.142.062h.53a.19.19 0 0 0 .178-.253l-1.34-2.881c-.043-.085.05-.272.221-.228l2.287.586c.13.037.175.055.3-.094l.327-.382a.184.184 0 0 1 .323.075l.563 2.998c.024.124.09.18.218.18h.56zM84.153 33.735c-.266-.376-1.47-2.048-1.578-2.206-.096-.131-.33-.069-.336.096-.008.122-.418 5.097-.505 6.144-.002.084.068.192.188.192h1.686a.18.18 0 0 0 .182-.158c.102-.724.476-3.4.483-3.474.024-.197.007-.41-.12-.594zm-.428 1.039c0 .043-.235 1.972-.31 2.587-.01.1-.107.158-.189.158h-.358c-.094 0-.204-.093-.19-.207.092-.717.39-3.048.401-3.148.017-.135.2-.226.32-.106l.192.186c.144.145.15.38.134.53zM85.49 33.661c-.462.126-.636.42-.665.62l-.472 3.482c-.01.08.06.198.182.198h.219c.055 0 .136-.05.158-.11l.53-1.47c.025-.08.097-.123.179-.123l.41.003a.18.18 0 0 1 .16.268l-.592 1.17c-.06.118.033.26.168.26h.325c.069 0 .12-.041.148-.08l3.366-5c.108-.16-.04-.33-.202-.286L85.49 33.66zm.383 1.94c-.104 0-.156-.078-.123-.174l.243-.65c.074-.205.19-.52.523-.584.243-.05 1.014-.152 1.014-.152.094-.017.137.044.087.13l-.757 1.27a.362.362 0 0 1-.284.16h-.703zM79.682 30.328c-.106 0-.14-.067-.082-.147l.906-1.256c.055-.082.151-.082.211 0l.906 1.256c.055.08.019.147-.082.147h-1.86zM92.15 35.864h78.754v1.297H92.15v-1.297zM19.91 35.864h49.202v1.297H19.91v-1.297z"/><path fill="#2B2B2A" fill-rule="evenodd" d="M69.113 41.084l6.823 3.367v7.682l-6.823 3.364h22.978l-6.822-3.364v-7.681l6.822-3.368H69.113zM92.648 41.106l6.82 3.366v7.681l-6.82 3.365h23.816a41.63 41.63 0 0 0 5.524-.337c1.824-.235 3.58-.64 5.27-1.213a12.181 12.181 0 0 0 2.65-1.3c.838-.544 1.521-1.174 2.056-1.893.533-.715.81-1.494.829-2.331-.039-1.059-.5-2.033-1.377-2.928-.876-.89-1.948-1.66-3.216-2.309-1.261-.646-2.488-1.134-3.685-1.455a20.226 20.226 0 0 0-3.648-.55 55.48 55.48 0 0 0-3.731-.096H92.648zm14.319 11.522v-8.933h4.696c1.33-.01 2.591.123 3.782.4 1.195.275 2.172.745 2.929 1.416.756.667 1.15 1.588 1.176 2.76-.018 1.384-.365 2.387-1.056 3.009-.69.622-1.631 1.007-2.834 1.158-1.197.153-2.566.214-4.106.19h-4.587zM160.413 41.105h-22.026l4.415 2.669-7.716 8.364-5.479 3.38h17.446l-5.642-2.948.834-1.002h10.736l.836 1.002-6.483 2.947h23.48l-7.041-3.38-7.775-8.363 4.415-2.669zm-13.213 4.22l3.521 3.916h-6.822l3.301-3.917z" clip-rule="evenodd"/><path fill="#2B2B2A" d="M44.24 47.665l3.524-6.56h20.854l-6.821 3.367v7.681l6.821 3.364H46.033l6.425-3.364V42.83l-7.905 11.703h-.625L36.021 42.83v9.323l6.43 3.364H19.863l6.82-3.364v-7.681l-6.82-3.367h20.852l3.526 6.56z"/></svg>
